X: 170
T:Master McDermott
S:IrTrad; Philippe Varlet 6/97
M:4/4
L:1/8
Q:240
C:Sean McGuire and Liam Donnelly
R:reel
B:Irish Tunes by the 100 Vol. 1
K:D
D2 (3FED ADFA | df{a}fe dB{d}Bd | AF{G}FE DFAF | BFAF EDB,A, |
D2 (3FED ADFA | df{a}fe dB{d}Bd | AF~F2  dFAF |1 EGFE D2 A,2 :|
2 EGFE D2 (3ABc ||
df{a}fe dfaf | ~g2  bg af{a}fe | dB{d}BA Bcde | fdgf efde |
fgaf ~g2  bg | af{a}fe dB{d}Bd | AF~F2  dFAF |1 EGFE  D2 (3ABc :|
2 EGFE D4 ||
